icons/inbox-percent-outline.svg

<svg xmlns="http://www.w3.org/2000/svg" width="24" height="24" viewBox="0 0 24 24">
  <path d="M19,2 C20.5976809,2 21.9036609,3.24891996 21.9949073,4.82372721 L22,5 L22,19 C22,20.5976809 20.75108,21.9036609 19.1762728,21.9949073 L19,22 L5,22 C3.40231912,22 2.09633912,20.75108 2.00509269,19.1762728 L2,19 L2,5 C2,3.40231912 3.24891996,2.09633912 4.82372721,2.00509269 L5,2 L19,2 Z M19,4 L5,4 C4.48716416,4 4.06449284,4.38604019 4.00672773,4.88337887 L4,5 L4,14 L6,14 C7.1045695,14 8,14.8954305 8,16 C8,17.1045695 8.8954305,18 10,18 L14,18 C15.1045695,18 16,17.1045695 16,16 C16,14.8954305 16.8954305,14 18,14 L20,14 L20,5 C20,4.48716416 19.6139598,4.06449284 19.1166211,4.00672773 L19,4 Z M15.7071068,12.2928932 C16.0976311,12.6834175 16.0976311,13.3165825 15.7071068,13.7071068 C15.3165825,14.0976311 14.6834175,14.0976311 14.2928932,13.7071068 C13.9023689,13.3165825 13.9023689,12.6834175 14.2928932,12.2928932 C14.6834175,11.9023689 15.3165825,11.9023689 15.7071068,12.2928932 Z M15.7071068,6.29289322 C16.0675907,6.65337718 16.0953203,7.22060824 15.7902954,7.61289944 L15.7071068,7.70710678 L9.70710678,13.7071068 C9.31658249,14.0976311 8.68341751,14.0976311 8.29289322,13.7071068 C7.93240926,13.3466228 7.90467972,12.7793918 8.20970461,12.3871006 L8.29289322,12.2928932 L14.2928932,6.29289322 C14.6834175,5.90236893 15.3165825,5.90236893 15.7071068,6.29289322 Z M9.70710678,6.29289322 C10.0976311,6.68341751 10.0976311,7.31658249 9.70710678,7.70710678 C9.31658249,8.09763107 8.68341751,8.09763107 8.29289322,7.70710678 C7.90236893,7.31658249 7.90236893,6.68341751 8.29289322,6.29289322 C8.68341751,5.90236893 9.31658249,5.90236893 9.70710678,6.29289322 Z"/>
</svg>

<svg xmlns="http://www.w3.org/2000/svg" viewBox="0 0 24 24">
  <path d="M19 2a3 3 0 0 1 3 2.82V19a3 3 0 0 1-2.82 3H5a3 3 0 0 1-3-2.82V5a3 3 0 0 1 2.82-3H19zm0 2H5a1 1 0 0 0-1 .88V14h2a2 2 0 0 1 2 2c0 1.1.9 2 2 2h4a2 2 0 0 0 2-2c0-1.1.9-2 2-2h2V5a1 1 0 0 0-.88-1H19zm-3.3 8.3a1 1 0 1 1-1.4 1.4 1 1 0 0 1 1.4-1.4zm0-6a1 1 0 0 1 .09 1.31l-.08.1-6 6a1 1 0 0 1-1.5-1.32l.08-.1 6-6a1 1 0 0 1 1.42 0zm-6 0a1 1 0 1 1-1.4 1.4 1 1 0 0 1 1.4-1.4z"/>
</svg>
